X:27
T:The Barrel Organ Slide
B:Terry "Cuz" Teahan "Sliabh Luachra on Parade" 1980
Z:Patrick Cavanagh
M:12/8
L:1/8
R:Slide
K:G
D | GBe dBG F2E E2E | FGA DEF G2D D2D | 
GBe dBG F2E E2E | FGA DEF G3 G2 :| 
G | d2B g2B d2B A2B | cBA f2e d2B G2B | 
d2B g2e d2B A2e | fed cBA G3 G2 :|| 

